src/images/svg/tg.svg

<svg width="25" height="24" viewBox="0 0 25 24" fill="none" xmlns="http://www.w3.org/2000/svg">
<path d="M12.4 0C5.77602 0 0.400024 5.376 0.400024 12C0.400024 18.624 5.77602 24 12.4 24C19.024 24 24.4 18.624 24.4 12C24.4 5.376 19.024 0 12.4 0ZM17.968 8.16C17.788 10.056 17.008 14.664 16.612 16.788C16.444 17.688 16.108 17.988 15.796 18.024C15.1 18.084 14.572 17.568 13.9 17.124C12.844 16.428 12.244 15.996 11.224 15.324C10.036 14.544 10.804 14.112 11.488 13.416C11.668 13.236 14.74 10.44 14.8 10.188C14.8084 10.1498 14.8073 10.1102 14.7968 10.0726C14.7863 10.0349 14.7669 10.0004 14.74 9.972C14.668 9.912 14.572 9.936 14.488 9.948C14.38 9.972 12.7 11.088 9.42403 13.296C8.94403 13.62 8.51202 13.788 8.12802 13.776C7.69602 13.764 6.88002 13.536 6.26802 13.332C5.51202 13.092 4.92402 12.96 4.97202 12.54C4.99602 12.324 5.29602 12.108 5.86002 11.88C9.36403 10.356 11.692 9.348 12.856 8.868C16.192 7.476 16.876 7.236 17.332 7.236C17.428 7.236 17.656 7.26 17.8 7.38C17.92 7.476 17.956 7.608 17.968 7.704C17.956 7.776 17.98 7.992 17.968 8.16Z" fill="#333333"/>
</svg>

<svg width="25" height="24" fill="none" xmlns="http://www.w3.org/2000/svg"><path d="M12.4 0a12 12 0 1 0 0 24 12 12 0 0 0 0-24Zm5.57 8.16c-.18 1.9-.96 6.5-1.36 8.63-.17.9-.5 1.2-.81 1.23-.7.06-1.23-.45-1.9-.9l-2.68-1.8c-1.18-.78-.42-1.2.27-1.9.18-.18 3.25-2.98 3.31-3.23a.24.24 0 0 0-.06-.22c-.07-.06-.17-.03-.25-.02-.11.02-1.79 1.14-5.07 3.35-.48.32-.9.49-1.3.48a8.37 8.37 0 0 1-1.85-.45c-.76-.24-1.35-.37-1.3-.79.03-.22.33-.43.89-.66 3.5-1.52 5.83-2.53 7-3.01 3.33-1.4 4.02-1.63 4.47-1.63.1 0 .33.02.47.14.12.1.16.23.17.32v.46Z" fill="#333"/></svg>
